icons/svg/xbox-controller-off.svg

﻿<?xml version="1.0" encoding="utf-8"?>
<!DOCTYPE svg PUBLIC "-//W3C//DTD SVG 1.1//EN" "http://www.w3.org/Graphics/SVG/1.1/DTD/svg11.dtd">
<svg xmlns="http://www.w3.org/2000/svg" xmlns:xlink="http://www.w3.org/1999/xlink" version="1.1" baseProfile="full" width="24" height="24" viewBox="0 0 24.00 24.00" enable-background="new 0 0 24.00 24.00" xml:space="preserve">
	<path fill="#000000" fill-opacity="1" stroke-width="0.2" stroke-linejoin="round" d="M 2,5.26848L 3.27711,4L 20,20.7229L 18.7315,22L 12.4815,15.75L 8.75,15.75C 6.75,15.75 6,18 4,19C 2.01476,19 0.522174,16.0441 4.41889,7.68736L 2,5.26848 Z M 9.3259,6.22772L 14.6741,6.22772C 16,5.00001 18.8148,6.66676 18.8148,6.66676L 19.25,7.50001L 19.4933,7.50002C 23.0197,14.9811 22.2805,18.2017 20.6891,18.8664L 7.62304,5.80035C 8.25002,5.72719 8.87432,5.80958 9.3259,6.22772 Z M 12,7.00001C 11.4477,7.00001 11,7.44773 11,8.00001C 11,8.55229 11.4477,9.00001 12,9.00001C 12.5523,9.00001 13,8.55229 13,8.00001C 13,7.44773 12.5523,7.00001 12,7.00001 Z "/>
</svg>

<svg xmlns="http://www.w3.org/2000/svg" version="1.1" baseProfile="full" width="24" height="24" viewBox="0 0 24.00 24.00" xml:space="preserve"><path fill="#000" fill-opacity="1" stroke-width=".2" stroke-linejoin="round" d="M2 5.268L3.277 4 20 20.723 18.732 22l-6.25-6.25H8.75C6.75 15.75 6 18 4 19c-1.985 0-3.478-2.956.42-11.313L2 5.267zm7.326.96h5.348c1.326-1.228 4.14.44 4.14.44l.436.832h.243c3.527 7.48 2.788 10.702 1.196 11.366L7.622 5.8c.627-.073 1.25.01 1.703.428zM12 7c-.552 0-1 .448-1 1s.448 1 1 1 1-.448 1-1-.448-1-1-1z"/></svg>
